!!!COM: Bach, Johann Sebastian
!!!CDT: 1685/3//-1750/7/28/
!!!OTL@@DE: Herr Jesu Christ, dich zu uns wend'
!!!AGN: 4-Part Chorale
!!!SCT: BH 136
!!!SCT: BWV 332
**harm	**root	**kern	**kern	**kern	**kern
!	!	!bass	!tenor	!alto	!soprno
*	*Iorgan	*Iorgan	*Iorgan	*Iorgan	*Iorgan
*	*	*clefF4	*clefF4	*clefG2	*clefG2
*k[f#c#]	*k[f#c#]	*k[f#c#]	*k[f#c#]	*k[f#c#]	*k[f#c#]
*D:	*D:	*D:	*D:	*D:	*D:
*M4/4	*M4/4	*M4/4	*M4/4	*M4/4	*M4/4
*met(c)	*met(c)	*met(c)	*met(c)	*met(c)	*met(c)
*MM60	*MM60	*MM60	*MM60	*MM60	*MM60
I	4GG	4DD	4F#	4A	4d
=1	=1	=1	=1	=1	=1
I	4GG	4DD	4A	4d	4f#
Vb	4DD	4CC#	4A	[4e	4a
I	4GG	8DD	4A	8e]	4f#
.	.	8FF#	.	4d	.
V	4DD	4AA	4A	.	4e
.	.	.	.	8c#	.
=2	=2	=2	=2	=2	=2
I	4GG	8D	4A	4d	4f#
.	.	8C#	.	.	.
viiob/V	4CC#	4BB	4B	4d	4g#
V;	4DD;	4AA;	4E;	4c#;	4a;
ii	4AA	8E	4G	4e	4b
.	.	8D	.	.	.
=3	=3	=3	=3	=3	=3
V7	4DD	4C#	4A	4.e	8a
.	.	.	.	.	8g
I	4GG	4D	4A	.	4f#
.	.	.	.	[8d	.
V7b/V	8AA	8GG#	8B	8d]	4e
V7b/VI	8BB	8AA#	4F#	8c#	.
vi	8EE	8BB	.	8B	8d
Vb	8DD	8C#	[8E	8A	8e
=4	=4	=4	=4	=4	=4
I	4GG	4D	8E]	4A	4f#
.	.	.	4D	.	.
V	4DD	4AA	.	4A	4e
.	.	.	8C#	.	.
I;	4GG;	4DD;	4F#;	4A;	4d;
V	4DD	4AA	4A	4c#	4e
!!linebreak: 2
=5	=5	=5	=5	=5	=5
I	4GG	8DD	4A	4d	4f#
.	.	8EE	.	.	.
Ib	4GG	8FF#	4A	4d	4f#
.	.	8GG#	.	.	.
V	2DD	8AA	4A	4d	4e
.	.	8BB	.	.	.
.	.	8C#	8E	4c#	4a
.	.	8F#	8A	.	.
=6	=6	=6	=6	=6	=6
vi7	4EE	8D	8F#	4B	4a
.	.	8BB	8D	.	.
V/V	4AA	8E	4E	4B	4g#
.	.	8EE	.	.	.
V;	4DD;	4AA;	4E;	4c#;	4a;
V7/IV	4GG	8D	4D	4A	4f#
.	.	8C	.	.	.
=7	=7	=7	=7	=7	=7
IVb	4CC	8BB	8D	4B	4g
.	.	8C#y	8E	.	.
I	4GG	4D	4F#	8A	4f#
.	.	.	.	[8d	.
V7b/V	8AA	8GG#	8B	8d]	4e
V7b/VI	8BB	8AA#	8F#	4c#	.
vi	4EE	4BB	4F#	.	4d
.	.	.	.	8B	.
=8	=8	=8	=8	=8	=8
Ib	4GG	8FF#	4F#	4A	4d
.	.	8GG	.	.	.
V	4DD	4AA	4E	4A	4c#
I;	4GG;	4DD;	4F#;	4A;	4d;
==	==	==	==	==	==
*-	*-	*-	*-	*-	*-
!!chor2scor: -l 2 -s 0.6 -o %b.pmx
!!!YEC: Copyright 2003 by Craig Stuart Sapp
!!!license: GNU General Public License (http://www.gnu.org/copyleft/gpl.html)
!!!SMA: 371 Bach Chorales, edited by Ludwig Erk, C.F. Peters
!!!PDT: 1850, 1865
!!!ONB: Harmony and Root analysis done manually by Craig Sapp
